src/assets/images/compass.svg

<svg fill="none" height="40" viewBox="0 0 40 40" width="40" xmlns="http://www.w3.org/2000/svg"><path d="m36.2449 19.9019h-.0001v.0092c0 9.0477-7.3745 16.4222-16.4222 16.4222s-16.42221-7.3745-16.42221-16.4222 7.37451-16.42221 16.42221-16.42221c9.1418 0 16.5059 7.37761 16.4223 16.41301z" fill="#5a57c6" stroke="#5a57c6" stroke-width="2"/><path clip-rule="evenodd" d="m27.7336 12.8889-3.5556 10.8444c-.0889.2667-.3555.5334-.6222.6223l-10.8444 3.5555c-.2667.0889-.6223.0889-.7112-.0889-.1777-.1777-.2666-.4444-.0888-.7111l3.5555-10.8444c.0889-.2667.3556-.5334.6222-.6222l10.8445-3.5556c.2666-.0889.6222-.0889.7111.0889.1778.1778.2667.4444.0889.7111zm-10.5783 7.0222c0-1.5112 1.2444-2.6667 2.6666-2.6667 1.5112 0 2.6667 1.2444 2.6667 2.6667 0 1.5111-1.1555 2.6666-2.6667 2.6666-1.5111 0-2.6666-1.2444-2.6666-2.6666z" fill="#edecff" fill-rule="evenodd"/></svg>

<svg width="40" height="40" viewBox="0 0 40 40" fill="none" xmlns="http://www.w3.org/2000/svg">
<path d="M36.2449 19.9019L36.2448 19.9019V19.9111C36.2448 28.9588 28.8703 36.3333 19.8226 36.3333C10.7749 36.3333 3.40039 28.9588 3.40039 19.9111C3.40039 10.8634 10.7749 3.48889 19.8226 3.48889C28.9644 3.48889 36.3285 10.8665 36.2449 19.9019Z" fill="#5A57C6" stroke="#5A57C6" stroke-width="2"/>
<path fill-rule="evenodd" clip-rule="evenodd" d="M27.7336 12.8889L24.178 23.7333C24.0891 24 23.8225 24.2667 23.5558 24.3556L12.7114 27.9111C12.4447 28 12.0891 28 12.0002 27.8222C11.8225 27.6445 11.7336 27.3778 11.9114 27.1111L15.4669 16.2667C15.5558 16 15.8225 15.7333 16.0891 15.6445L26.9336 12.0889C27.2002 12 27.5558 12 27.6447 12.1778C27.8225 12.3556 27.9114 12.6222 27.7336 12.8889ZM17.1553 19.9111C17.1553 18.3999 18.3997 17.2444 19.8219 17.2444C21.3331 17.2444 22.4886 18.4888 22.4886 19.9111C22.4886 21.4222 21.3331 22.5777 19.8219 22.5777C18.3108 22.5777 17.1553 21.3333 17.1553 19.9111Z" fill="#EDECFF"/>
</svg>
